!!!COM:	Anonymous
!!!OTL:	Quant je suis seullecte
!!!AGN:	Song; Chanson
!!!SCT:	Ano3032
!!!SCA:	Ano3032
!!!SMS:	Dijon Chansonnier
!!!folio:	
!!!voices:	4
**kern	**kern	**kern	**kern
*staff4	*staff3	*staff2	*staff1
*Ivox	*Ivox	*Ivox	*Ivox
*I"Contratenor	*I"Tenor2	*I"Tenor1	*I"Superius
*I'Ct	*I'T2	*I'T1	*I'S
*clefF4	*clefGv2	*clefGv2	*clefG2
*k[b-]	*k[b-]	*k[b-]	*k[]
*M2/1	*M2/1	*M2/1	*M2/1
*met(C|)	*met(C|)	*met(C|)	*met(C|)
=1-	=1-	=1-	=1-
0r	0r	1.A	0a
.	.	2B-	.
=2	=2	=2	=2
1.AA	0r	1.c	1.a
2BB-	.	4B-	2g
.	.	4A	.
=3	=3	=3	=3
1C	0r	1G	1e
[1D	.	1F	[1f
=4	=4	=4	=4
2D]	1.A	0r	2f]
2C	.	.	2e
2.D	.	.	2f
.	2B-	.	4e
4BB-	.	.	4d
=5	=5	=5	=5
2AA	1.c	0r	2c
1C	.	.	1e
2D	4B-	.	2f
.	4A	.	.
=6	=6	=6	=6
1E	1G	0r	1g
1F	1F	.	1a
=7	=7	=7	=7
1.G	0r	1.B-	1g
.	.	.	2r
4F	.	2A	[2c
4E	.	.	.
=8	=8	=8	=8
2F	0r	2.A	2c]
2.D	.	.	1f
.	.	4G	.
.	.	2.F	.
4C	.	.	.
2AA	.	.	4e
.	.	4E	4d
=9	=9	=9	=9
2GG	1.B-	1G	2e
2.BB-	.	.	2.d
.	.	1r	.
4C	.	.	4e
[2D	2A	.	[2f
=10	=10	=10	=10
2D]	2.A	0r	2f]
4C	.	.	2g
4BB-	4G	.	.
1AA	2.F	.	1a
.	4E	.	.
=11	=11	=11	=11
0GG	0G	1.d	1.b-i
.	.	2c	2a
=12	=12	=12	=12
1r	0r	1.d	1.b-i
[1G	.	.	.
.	.	2c	2cc
=13	=13	=13	=13
2G]	1.d	1d	1.b-i
2F	.	.	.
1E	.	1e	.
.	2c	.	4a
.	.	.	4g
=14	=14	=14	=14
2D	1.d	1.f	0a
2.F	.	.	.
4G	.	.	.
2A	2c	2e	.
=15	=15	=15	=15
2F	1d	2f	1r
2G	.	4e	.
.	.	4d	.
1E	1e	2.c#i	1g
.	.	4Bni	.
=16	=16	=16	=16
2D	1.f	0d	1f
2.B-	.	.	.
.	.	.	1b-
4A	.	.	.
2G	2e	.	.
=17	=17	=17	=17
2F	2f	0r	2a
2G	4e	.	1g
.	4d	.	.
1A	2.c	.	.
.	.	.	2f#i
.	4B-	.	.
=18	=18	=18	=18
1G	0dN	1.B-	1g
1r	.	.	[1g
.	.	2A	.
=19	=19	=19	=19
1.B-	0r	1.G	2g]
.	.	.	2f
.	.	.	1d
2A	.	2F	.
=20	=20	=20	=20
1.G	1.B-	1G	0r
.	.	1A	.
2F	2A	.	.
=21	=21	=21	=21
1G	1.G	1.B-	1d
1D	.	.	2.f
.	2F	2A	.
.	.	.	4d
=22	=22	=22	=22
2BB-	1G	2B-	2e-i
2C	.	4A	4f
.	.	4G	4e-i
1AA	1A	2.F#i	2d
.	.	.	2c
.	.	4E	.
=23	=23	=23	=23
2GG	1.B-	1G	2B-i
2.BB-	.	.	2.d
.	.	1r	.
4AA	.	.	4c
2FF	2A	.	2c
=24	=24	=24	=24
1GG	2B-	0r	2G
.	4A	.	2B-i
.	4G	.	.
1D	2.F#i	.	1A
.	4E	.	.
=25	=25	=25	=25
1r	0G	0r	0G
1E	.	.	.
=26	=26	=26	=26
1.F	0r	1.A	1r
.	.	.	1d
4E	.	2B-	.
4D	.	.	.
=27	=27	=27	=27
2C	0r	1.c	1.e
1A	.	.	.
4G	.	4B-	2f
4F	.	4A	.
=28	=28	=28	=28
2.E	0r	1G	1g
4D	.	.	.
[1F	.	1F	[1a
=29	=29	=29	=29
2F]	1.A	0r	2a]
2.D	.	.	2.f
4C	.	.	4e
2D	2B-	.	2d
=30	=30	=30	=30
2.AA	1.c	0r	2c
.	.	.	1e
4BB-	.	.	.
2C	.	.	.
2D	4B-	.	[2d
.	4A	.	.
=31	=31	=31	=31
1E	1G	0r	2d]
.	.	.	2c#i
2r	1F	.	1d
[2D	.	.	.
=32	=32	=32	=32
2D]	0r	1.B-	1r
1G	.	.	.
.	.	.	1G
2E	.	2A	.
=33	=33	=33	=33
2.F	0r	2.A	2A
.	.	.	2B-i
4G	.	4G	.
1A	.	2.F	1c
.	.	4E	.
=34	=34	=34	=34
1.G	1.B-	1G	2.B-i
.	.	.	4c
.	.	1r	2.d
[2D	2A	.	.
.	.	.	4e
=35	=35	=35	=35
2D]	2.A	0r	2f
4C	.	.	2.f
4BB-	4G	.	.
2.AA	2.F	.	.
.	.	.	4e
.	.	.	4d
4GG	4E	.	4c
=36	=36	=36	=36
1GG	2G	1g	2B-
.	1d	.	2b-i
1FF	.	1a	2a
.	4c	.	[2cc
.	4d	.	.
=37	=37	=37	=37
1GG	4e	2g	4cc]
.	4d	.	4b-i
.	4c	4f	4a
.	4B-	4e	4g
1D	2.A	[1d	2.f#i
.	4G	.	4e
=38	=38	=38	=38
[0GGl	[0Gl	2d]	[0gl
.	.	1e-i	.
.	.	2d	.
=39	=39	=39	=39
0GG]	0G]	0dl	0g]
==	==	==	==
*-	*-	*-	*-
!!!RDF**kern: l=long note in original notation
!!!RDF**kern: i=editorial accidental
!!!RDF**kern: N=signum congruentiae
!!!ENC:	Chris Gage 03-05-2015
!!!END:	2015/03/13/
!!!EED:	Jesse Rodin
!!!EEV:	2016/02/22/
!!!ONB:	Translated from MusicXML and edited on 2016/02/22/ by Craig Sapp
!!muse2ps: C^@{COM}\n@{SMS} @{folio}^v85,85,85,150Q16
